pro/src/icons/full-switch.svg

<svg width="48" height="48" viewBox="0 0 48 48" fill="none" xmlns="http://www.w3.org/2000/svg" id="icon">
  <path
    d="M45.2862 22.8895H40.4642C39.9542 13.4334 32.7676 5.99998 24.0046 5.99998C21.1763 5.99998 18.3944 6.80906 15.9834 8.27551L15.1025 8.83175C14.7315 9.08459 14.5924 9.59026 14.8243 9.9948L16.2152 12.3209C16.4471 12.6749 16.8643 12.8266 17.2353 12.5737L17.9771 12.1186C19.8317 11.0061 21.9181 10.3993 24.0046 10.3993C30.5421 10.3993 35.874 15.8606 36.3841 22.8389H31.7012C31.0984 22.8389 30.7275 23.5468 31.0521 24.1031L37.8214 35.4807C38.0996 35.9864 38.795 35.9864 39.0732 35.4807L45.8425 24.1031C46.2135 23.5974 45.8889 22.8895 45.2862 22.8895Z"
    fill="currentColor"/>
  <path
    d="M31.794 35.6791C31.5622 35.3251 31.1449 35.1734 30.7739 35.4262L30.0321 35.8814C28.1311 36.9938 26.1374 37.6006 24.0046 37.6006C17.4672 37.6006 12.1352 32.0888 11.5788 25.1611H16.2617C16.8644 25.1611 17.2353 24.4531 16.9108 23.8969L10.1415 12.4687C9.86328 11.963 9.1678 11.963 8.88961 12.4687L2.1203 23.8463C1.79575 24.4026 2.16667 25.1105 2.76941 25.1105H7.54502C8.05504 34.516 15.2416 42 24.0046 42C26.7865 42 29.5685 41.1909 32.0258 39.7245L32.9067 39.1682C33.2777 38.9154 33.4168 38.4097 33.1849 38.0052L31.794 35.6791Z"
    fill="currentColor"/>
</svg>

<svg xmlns="http://www.w3.org/2000/svg" id="icon" width="48" height="48" fill="none"><path fill="currentColor" d="M45.286 22.89h-4.822C39.954 13.433 32.768 6 24.004 6c-2.828 0-5.61.81-8.02 2.276l-.882.556a.883.883 0 0 0-.278 1.163l1.391 2.326c.232.354.65.506 1.02.253l.742-.455c1.855-1.113 3.941-1.72 6.028-1.72 6.537 0 11.869 5.462 12.38 12.44H31.7c-.603 0-.974.708-.649 1.264l6.77 11.378a.706.706 0 0 0 1.251 0l6.77-11.378c.37-.506.046-1.213-.557-1.213M31.794 35.68c-.232-.355-.65-.507-1.02-.254l-.742.455c-1.9 1.113-3.895 1.72-6.027 1.72-6.538 0-11.87-5.512-12.426-12.44h4.683c.602 0 .973-.708.649-1.264l-6.77-11.428a.706.706 0 0 0-1.251 0L2.12 23.846c-.324.557.047 1.264.65 1.264h4.775C8.055 34.517 15.242 42 24.005 42c2.782 0 5.564-.81 8.02-2.276l.882-.556a.883.883 0 0 0 .278-1.163z"/></svg>
